svg/300/sharp/card_travel.svg

<svg xmlns="http://www.w3.org/2000/svg" width="48" height="48" viewBox="0 -960 960 960"><path d="M145.385-185.385h669.23v-100.846h-669.23v100.846Zm-45.384 45.384v-559.998H309.54v-144.614h340.305v144.614h210.154v559.998H100.001Zm45.384-240.768h669.23v-273.846h-164.77v68.461h-45.384v-68.461H354.923v68.461H309.54v-68.461H145.385v273.846Zm209.538-319.23h249.538v-99.23H354.923v99.23ZM145.385-185.385v-469.23 68.461-68.461 68.461-68.461 469.23Z"/></svg>

<svg xmlns="http://www.w3.org/2000/svg" width="48" height="48" viewBox="0 -960 960 960"><path d="M145.39-185.39h669.22v-100.84H145.39v100.84ZM100-140v-560h209.54v-144.61h340.3V-700H860v560H100Zm45.39-240.77h669.22v-273.84H649.84v68.46h-45.38v-68.46H354.92v68.46h-45.38v-68.46H145.39v273.84ZM354.92-700h249.54v-99.23H354.92V-700ZM145.39-185.39v-469.22 68.46-68.46 68.46-68.46 469.22Z"/></svg>
